!!!!SEGMENT: pl-wnifc--6439-n--012_anonim--mazur-no-12.krn
!!!cenid: 18xx:3955
!!!COM: Anonim
!!!COM-rismID: pe30004985
!!!CDT:
!!!CNT:
!!!OTL: Mazur No. 12
!!!PDT: 1827
!!!AGN:
!!!SMS-siglum: PL-Wnifc
!!!SMS-shelfmark: 6439/n
!!!SMS-shelfwork: 012 W
!!!SMS-variant:
!!!SMS-altvar:
!!!NIFC-rismSourceID: 1001011210
!!!NIFC-rismChildID: 1001011243
!!!NIFC-islandoraID: nifc:212734
!!!URL-pdf-islandora: https://repozytorium.nifc.pl/islandora/object/nifc:212734/datastream/PDF/view
!!!URL-scan: https://polish.musicsources.pl/pl/lokalizacje/galeria/druki-muzyczne/16857 @EN{Scan on Polish Music Sources Website} @PL{Skany w portalu Dziedzictwo Muzyki Polskiej w otwartym dostępie}
!!!IIIF:
!!!ONB-nifc: str. 9 (skan 0005)
!!!AIN: 2 piano
!!!key: A
**kern	**kern
*part2	*part1
*staff2	*staff1
*I"Piano	*I"Pianoforte
*	*I'pf
*Ipiano	*Ipiano
*ICklav	*ICklav
*clefF4	*clefG2
*k[f#c#g#]	*k[f#c#g#]
*A:	*A:
*M3/8	*M3/8
=1	=1
8AA\L 8A	16.e/LL
.	32a/JJk
8E\ 8A 8c#	16.cc#\LL
.	32b\K
8E\J 8A 8c#	16.a\
.	32cc#\JJk
=2	=2
8AA\ 8A	16.ee\LL
.	32dd\JJk
8E\L 8A 8c#	8cc#\L
.	8qgg#/
8E\J 8A 8c#	8aa\J
=3	=3
8EE/ 8E	16gg#\LL
.	16ff#\
8E\L 8B 8d	16ee\
.	16gg#\
8E\J 8B 8d	16bb\
.	16aa\JJ
=4	=4
8EE/ 8E	16.gg#\LL
.	32bb\JJk
8E\L 8B 8d	8.ddd\L
8E\J 8B 8d	.
.	16ccc#\Jk
=5	=5
8EE/ 8E	8bb\L
.	32qqccc#/LLL
.	32qqbb/
.	32qqaa/JJJ
8E\L 8B 8d	16bb\L
.	16ddd\
8E\J 8B 8d	16fff#\
.	16eee\JJ
=6	=6
*	*Xtuplet
8AA\ 8A	24eee\LL
.	24fff#\
.	24eee\JJ
8E\L 8A 8c#	8ccc#\L
8E\J 8A 8c#	16bb\L
.	16aa\JJ
=7	=7
8EE/ 8E	16gg#\LL
.	16aa\
8E\L 8B 8d	16bb\
.	16ee\
8E\J 8B 8d	16ff#\
.	16gg#\JJ
=8	=8
8AA/ 8A	16bb\LL
.	16aa\JJ
4A\ 4c#	4aa\
=9:|!|:	=9:|!|:;
*	*tuplet
8AA\L 8A	8a\L 8cc# 8ee
8E\ 8A 8c#	8a\ 8cc#
8E\J 8A 8c#	8cc#\J 8ee 8aa
!LO:LB:g=original	!LO:LB:g=original
=10	=10
!	!LO:TUP:a:problem:klamra łukowa
8EE/ 8E	(24gg#\LL
.	24aa\
.	24bb\JJ)
8E\L 8G# 8B 8d	8ee\L
8E\J 8G# 8B 8d	16bb\L
.	16aa\JJ
=11	=11
8EE/ 8E	8ee\L 8gg#
8E\L 8G# 8B 8d	8e/
8E\J 8G# 8B 8d	8gg#\J 8bb
=12	=12
!	!LO:TUP:a:problem:klamra łukowa
8AA/ 8A	(24aa\LL
.	24bb\
.	24ccc#\JJ)
8E\L 8A 8c#	8a/L
8E\J 8A 8c#	16ccc#\L
.	16aa\JJ
=13	=13
8BB\ 8B	8a\L 8dd#X 8ff#
*clefG2	*
8B/L 8d#X 8f# 8a	8b\
8B/J 8d# 8f# 8a	16bb\L
.	16aa\JJ
*clefF4	*
=14	=14
!	!LO:TUP:a:problem:klamra łukowa
8E\ 8e	(24gg#\LL
.	24aa\
.	24bb\JJ)
*clefG2	*
8B/L 8e 8g#	16aa\LL
.	16gg#\
8B/J 8e 8g#	16ff#\
.	16ee\JJ
*clefF4	*
=15	=15
8BB\ 8B	16.dd#X\LL
.	32ee\K
*clefG2	*
8B/L 8d#X 8f# 8a	16ff#\
.	16b\
8B/J 8d# 8f# 8a	16cc#\
.	16dd#\JJ
*clefF4	*
=16	=16
8E\ 8e	(16ff#\LL
.	16ee\JJ
4DD/ 4GG# 4BB	4ee\)
=17:|!|:	=17:|!|:
8E\ 8e	(16ff#\LL
.	16ee\
4E^\ 4G# 4B 4d	16dd#X\
!	!LO:TX:a:t=2.
.	16ee\
.	16ddn\
.	16b\JJ)
==	==
*-	*-
!!!system-decoration: [(s1,s2)]
!!!ENC: Filip Voros
!!!END: 2022-07-28
!!!ENC: Julita Ruszuk
!!!END: 2022-08-25
!!!YEC: Copyright 2022 Narodowy Instytut Fryderyka Chopina (https://polishscores.org)
!!!YEM: License CC-BY-4.0 (https://creativecommons.org/licenses/by/4.0)
